X: 200
T:Allen a Dale. JaW.199
M:6/8
Q:50
S:James Winder Ms, Lancashire, 1835-41
R:Air
O:England
A:Wyresdale,Lancashire
H:1/8
Z:vmp.Chris Partington, Aug 2004
K:C
cBc dcB|cde dBz|Acc Adc|Bdg ecz|!
fgf fed|edc dBG|gec cAf|dBg ec e|!
cce cce|gfd e2G|cBc dfe|AdB c3:|]
